svgs/sharp-solid/venus-double.svg

<svg xmlns="http://www.w3.org/2000/svg" viewBox="0 0 640 512"><!--! Font Awesome Pro 6.6.0 by @fontawesome - https://fontawesome.com License - https://fontawesome.com/license (Commercial License) Copyright 2024 Fonticons, Inc. --><path d="M192 288a112 112 0 1 0 0-224 112 112 0 1 0 0 224zM368 176c0 86.3-62.1 158.1-144 173.1l0 34.9 32 0 32 0 0 64-32 0-32 0 0 32 0 32-64 0 0-32 0-32-32 0-32 0 0-64 32 0 32 0 0-34.9C78.1 334.1 16 262.3 16 176C16 78.8 94.8 0 192 0s176 78.8 176 176zM344 318c14.6-15.6 26.8-33.4 36-53c18.8 14.4 42.4 23 68 23c61.9 0 112-50.1 112-112s-50.1-112-112-112c-25.6 0-49.1 8.6-68 23c-9.3-19.5-21.5-37.4-36-53C373.1 12.6 409.1 0 448 0c97.2 0 176 78.8 176 176c0 86.3-62.1 158.1-144 173.1l0 34.9 32 0 32 0 0 64-32 0-32 0 0 32 0 32-64 0 0-32 0-32-32 0-32 0 0-64 32 0 32 0 0-34.9c-26.6-4.9-51.1-15.7-72-31.1z"/></svg>

<svg xmlns="http://www.w3.org/2000/svg" viewBox="0 0 640 512"><!--! Font Awesome Pro 6.4.0 by @fontawesome - https://fontawesome.com License - https://fontawesome.com/license (Commercial License) Copyright 2023 Fonticons, Inc. --><path d="M192 288a112 112 0 1 0 0-224 112 112 0 1 0 0 224zM368 176c0 86.3-62.1 158.1-144 173.1V384h32 32v64H256 224v32 32H160V480 448H128 96V384h32 32V349.1C78.1 334.1 16 262.3 16 176C16 78.8 94.8 0 192 0s176 78.8 176 176zM344 318c14.6-15.6 26.8-33.4 36-53c18.8 14.4 42.4 23 68 23c61.9 0 112-50.1 112-112s-50.1-112-112-112c-25.6 0-49.1 8.6-68 23c-9.3-19.5-21.5-37.4-36-53C373.1 12.6 409.1 0 448 0c97.2 0 176 78.8 176 176c0 86.3-62.1 158.1-144 173.1V384h32 32v64H512 480v32 32H416V480 448H384 352V384h32 32V349.1c-26.6-4.9-51.1-15.7-72-31.1z"/></svg>
